!!!OTL: Der schwatzhafte Junggeselle Es waren drei Gesellen,
!!!ARE: Europa, Osteuropa, UdSSR, Nord - Ukraine, Sprachinsel Belowjetsch
!!!YOR: 6, S. 276
!!    1930 gedruckt
!!!SCT: Q0139G
!!!YEM: Copyright 1995, estate of Helmut Schaffrath.
**kern
*ICvox
*Ivox
*M4/4
*k[b-]
*F:
{8c
=1
4f
8e
8d
4c
4a
=2
4g
4f
4.r}
{8c
=3
4f
8e
8d
4c
4a
=4
4g
4f
4.r}
{8f
=5
8a
8a
8a
8a
4a
8g
8a
=6
4b-
8a
8a
4g
8r}
{8g
=7
8g
8g
8g
8g
4g
8f
8g
=8
8a
8a
8g
8g
4.a}
==
!!!AGN: Ballade, Indiskretion, verweigerter Beischlaf
!! Schlusspause und einen Taktstrich weggelassen.
!!!ONB: ESAC (Essen Associative Code) Database: BALLADE
!!!AMT: simple quadruple
!!!AIN: vox
!!!EED: Helmut Schaffrath
!!!EEV: 1.0
*-
